!!!!SEGMENT: pl-wtm--r-325-m--005_moniuszko-stanislaw--kontredanse-na-4-rece.krn
!!!cenid: 18xx:3031
!!!COM: Moniuszko, Stanisław
!!!COM-rismID: pe30008351
!!!CDT: 1819/05/05-1872/06/04
!!!CNT: Polish
!!!GTL: Kontredanse na 4 ręce
!!!OTL: Fig. 5
!!!PDT:
!!!AGN: Secular
!!!SMS-siglum: PL-Wtm
!!!SMS-shelfmark: R 325/M
!!!SMS-shelfwork: 005 G
!!!SMS-variant:
!!!SMS-altvar:
!!!NIFC-rismSourceID: 1001094323
!!!NIFC-rismChildID: 1001094323
!!!NIFC-islandoraID:
!!!URL-pdf-islandora:
!!!URL-scan:
!!!ONB-nifc: UWAGA: w zbiorze 6 kontredansów, numeracja plików zgodna ze źródłową
!!!AIN: 2 forte
!!!key:
**kern	**kern	**dynam	**kern	**kern	**dynam
*part2	*part2	*part2	*part1	*part1	*part1
*staff4	*staff3	*	*staff2	*staff1	*
*Iforte	*Iforte	*	*Iforte	*Iforte	*
*I"Fortepian	*I"Fortepian	*	*I"Fortepian	*I"Fortepian	*
*clefF4	*clefF4	*	*clefG2	*clefG2	*
*k[b-e-]	*k[b-e-]	*	*k[b-e-]	*k[b-e-]	*
*g:	*g:	*	*g:	*g:	*
*M2/4	*M2/4	*	*M2/4	*M2/4	*
*>[A,A,B]	*>[A,A,B]	*	*>[A,A,B]	*>[A,A,B]	*
*all\right	*all\right	*	*all\right	*all\right	*
=!|:	=!|:	=!|:	=!|:	=!|:	=!|:
*>A	*>A	*	*>A	*>A	*
!	!	!	!	!LO:TX:t=P:problem=umiejscowienie znaków dynamiki skonsultowane z EZ	!
8r	8r	.	(16g/LL	(16b-\LL	p
.	.	.	16a/JJ	16cc\JJ	.
=1	=1	=1	=1	=1	=1
8GG/ 8G	8r	p	8b-\L)	8dd\L)	.
8r	8G\ 8B- 8d	.	16b-'\L	16dd'\L	.
.	.	.	16b-'\JJ	16dd'\JJ	.
*rep	*rep	*	*	*	*
8GG/ 8G	8r	.	16cc\LL	(16ee-\LL	.
.	.	.	16b-\	16dd\	.
8r	8G\ 8B- 8d	.	16a\	16cc\	.
.	.	.	16b-\JJ	16dd\JJ)	.
*Xrep	*Xrep	*	*	*	*
=2	=2	=2	=2	=2	=2
8C\ 8G	8r	.	(8dd\L	(8ff\L	.
*	*tremolo	*	*	*	*
8r	8G\L 8c 8e-	.	8cc\J)	8ee-\J)	.
.	.	.	8qdd/	8qff/	.
4r	8G\ 8c 8e-	.	8.cc^\L	8.ee-^\L	.
.	8G\J 8c 8e-	.	.	.	.
.	.	.	16b-\Jk	16dd\Jk	.
*	*Xtremolo	*	*	*	*
=3	=3	=3	=3	=3	=3
8FF/ 8F	8r	.	8a'\	8cc'\	.
8r	8F\ 8A 8c	.	(16a\LL	(16cc\LL	.
.	.	.	16b-\JJ	16dd\JJ	.
*rep	*rep	*	*	*	*
8FF/ 8F	8r	.	8cc'\L)	8ee-'\L)	.
8r	8F\ 8A 8c	.	8a'\J	8ff'\J	.
*Xrep	*Xrep	*	*	*	*
=4	=4	=4	=4	=4	=4
8BB-/ 8F	8r	.	(4b-^\	(4dd^\	.
8r	8D\ 8F 8A	.	.	.	.
8BBB-/ 8BB-	8r	.	8d/L)	8b-\)	.
8r	8D\ 8F 8B-	.	8d/J	16b-\LL	.
.	.	.	.	16a\JJ	.
=5	=5	=5	=5	=5	=5
8GGG/ 8GG	8r	.	8g'/	8b-\	.
8r	8D\L 8G 8B-	.	16g'/LL	16b-'\LL	.
.	.	.	16g'/JJ	16b-'\JJ	.
4r	8D\ 8G 8d	.	(16a/LL	(16cc\LL	.
.	.	.	16g/	16b-\	.
.	8D\J 8G 8B-	.	16f#X/	16a\	.
.	.	.	16g/JJ)	16b-\JJ)	.
!!LO:LB:g=original
=6	=6	=6	=6	=6	=6
8CC/ 8C	8r	.	(8b-/L	(8dd\L	.
*	*tremolo	*	*	*	*
8r	8E-\L 8G 8c	.	8a/J)	8cc\J)	.
.	.	.	8qb-/	8qdd/	.
4r	8E-\ 8G 8c	.	8.a^/L	8.cc^\L	.
.	8E-\J 8G 8c	.	.	.	.
.	.	.	16g/Jk	16b-\Jk	.
*	*Xtremolo	*	*	*	*
=7	=7	=7	=7	=7	=7
8DD/ 8D	8r	.	8f#X'/	8a'\	.
8r	8D\ 8F#X 8A	.	(16f#/LL	(16a\LL	.
.	.	.	16g/JJ	16b-\JJ	.
8DD/ 8D	8r	.	8a'/L)	8cc'\L)	.
8r	8D\ 8A 8d	.	8f#'/J	8dd'\J	.
=8	=8	=8	=8	=8	=8
8GG/	8r	.	(4g/	(>4b-/	.
8r	8D\L 8G 8B-	.	.	.	.
8r	8G\J 8B-	.	8d/)	8g/)	.
=||	=||	=||	=||	=||	=||
8r	8r	ff	16g/LL	16gg\LL	ff
.	.	.	16b-/JJ	16bb-\JJ	.
=9	=9	=9	=9	=9	=9
*	*	*	*	*8va	*
!	!	!	!LO:TX:a:t=Col 1m	!	!
8GGG'/L 8GG	8G'\L 8e-	.	8b-^\yy 8ee-yy	8bb-^\ 8eee-	.
8BBB-'/J 8BB-	8B-'\J 8e-	.	16g\LLyy 16b-yy 16ee-yy	16gg/LL 16bb- 16eee-	.
!	!	!	!	!LO:N:head=invis	!
.	.	.	16g\JJyy 16b-yy 16ee-yy	16gg/JJ 16bb- 16eee-	.
4EE-^/	4E-^\ 4G 4B- 4e-	.	16g\LLyy 16b-yy 16ee-yy	16gg\LL 16bb- 16eee-	.
.	.	.	16ff\yy	16fff\	.
.	.	.	16gg\yy	16ggg\	.
.	.	.	16aa\JJyy	16aaa\JJ	.
=10	=10	=10	=10	=10	=10
8DD'/L 8D	8F'\L 8B- 8f	.	8ff^>\Lyy 8bb-yy	8fff^>\L 8bbb-	.
8FF'/J	8F'\J 8B- 8d	.	16dd\Lyy 16ffyy 16bb-yy	16ddd\L 16fff 16bbb-	.
!	!	!	!	!LO:N:head=invis	!
.	.	.	16dd\JyyJ 16ffyy 16bb-yy	16ddd\JJ 16fff 16bbb-	.
!	!	!	!	!LO:N:head=invis	!
4BBB-/ 4BB-	4F^\ 4B- 4d 4f	.	16dd\LyyL 16ffyy 16bb-yy	16ddd\LL 16fff 16bbb-	.
.	.	.	16aa\yy	16aaa\	.
.	.	.	16gg\yy	16ggg\	.
.	.	.	16ff\JJyy	16fff\JJ	.
=11	=11	=11	=11	=11	=11
8EE-/L 8E-	8G\L 8B- 8e-	.	8ee-\	16eee-^\LL	.
.	.	.	.	16bb-\	.
!LO:N:head=invis	!	!	!	!	!
16EE-/L 16E-	16G\L 16B- 16e-	.	16g/LL	16gg\	.
!LO:N:head=invis	!LO:N:head=invis	!	!	!	!
16EE-/JJ 16E-	16G\JJ 16B- 16e-	.	16b-/JJ	16bb-\JJ	.
!LO:N:head=invis	!LO:N:head=invis	!	!	!	!
8EE-/L 8E-	8G\L 8B- 8e-	.	16ee-\LL	16eee-\LL	.
.	.	.	16ff\	16fff\	.
!LO:N:head=invis	!LO:N:head=invis	!	!	!	!
8EE-/J 8E-	8G\J 8B- 8e-	.	16gg\	16ggg\	.
.	.	.	16aa\JJ	16aaa\JJ	.
!!LO:LB:g=original
=12	=12	=12	=12	=12	=12
!	!	!	!LO:TX:a:t=Col 1m	!	!
8GGG'/L 8GG	8F'\L 8B- 8d	.	(8.bb-^\Lyy	(8.bbb-^\L	.
8CC'/ 8C	8F'\ 8B- 8e-	.	.	.	.
.	.	.	32aa\LLyy	32aaa\LL	.
.	.	.	32gg\JJJ)yy	32ggg\JJJ)	.
8DD^/J 8D	8F^\J 8B- 8f	.	8ff\Lyy	8fff\L	.
8r	8r	.	16gg^\Lyy	16ggg^\L	.
.	.	.	16ff\JJyy	16fff\JJ	.
*	*clefG2	*	*	*	*
=13	=13	=13	=13	=13	=13
!LO:TX:b:t=g	!LO:TX:b:t=di-mi-nu-endo:problem=dynamics with extention lines	!LO:HP:t=di-mi-nu-endo:ext=ud	!LO:TX:b:t=di-mi nuendi.:problem=dynamics with extention lines	!LO:TX:b:t=di-mi nuendi.:problem=dynamics with extention lines	!LO:HP:t=di-mi nuendi:ext1=ud:ext2=s
(4GG/	8r	.	8een\Lyy	8eeen\L	>
.	8c/ 8en 8b-	>	(16gg\Lyy	(16ggg\L	.
.	.	.	16ff\JJyy	16fff\JJ	.
!LO:TX:b:t=a	!	!	!	!	!
4AA/	8r	.	8ee-X\L)yy	8eee-X\L)	.
.	8c/ 8e-X 8f	.	(16ff\Lyy	(16fff\L	.
.	.	.	16ee-\JJyy	16eee-\JJ	.
=14	=14	=14	=14	=14	=14
4BB-/	8r	.	8dd\L)yy	8ddd\L)	.
.	8B-/ 8d	.	(16ee-\Lyy	(16eee-\L	.
.	.	.	16dd\JJ)yy	16ddd\JJ)	]
4FF#X/	8r	.	(8dd^\Lyy	(8ddd^\L	.
.	8A/ 8c 8d	.	16a\Lyy	16aa\L	.
.	.	.	16cc\JJ)yy	16ccc\JJ)	.
*	*clefF4	*	*	*	*
=15	=15	=15	=15	=15	=15
8GG/L)	8G'\L 8B- 8d	.	8b-\yy	8bb-\	.
8FF/ 8F	8G'\ 8B- 8d	]	16g/LLyy	16gg/LL	.
.	.	.	16a/JJyy	16aa/JJ	.
8EEn/ 8En	8G'\ 8c	.	16cc/LLyy	16ccc/LL	.
.	.	.	16b-/yy	16bb-/	.
8EE-X/J 8E-X	8G'\J 8c#X	.	16a/yy	16aa/	.
.	.	.	16g/JJyy	16gg/JJ	.
=16	=16	=16	=16	=16	=16
4DD/ 4D	(<4G^\ 4B- [>4d	.	(8.dd^\L	(8.bb-^/L 8.ddd	.
.	.	.	32cc\LL	32aa/LL 32ccc	.
.	.	.	32b-\JJJ	32gg/JJJ 32bb-	.
8r	8D\) 8A 8d]	.	8a/)	8ff#X/) 8aa	.
=||	=||	=||	=||	=||	=||
!	!	!	!	!	!LO:DY:t=pp.
8r	8r	.	(16g/LL 16b-	(16gg/LL 16bb-	pp
.	.	.	16a/JJ) 16cc	16aa/JJ 16ccc	.
=17	=17	=17	=17	=17	=17
!	!LO:TX:b:i:t=Fagotto.	!LO:DY:rj	!	!	!
2r	8G'\L	pp	8b-'\ 8dd	8bb-\L) 8ddd	.
!	!	!	!	!LO:N:head=invis	!
.	16D'\L	.	16dd\LL	16bb-'\L 16ddd	.
!	!	!	!	!LO:N:head=invis	!
.	16D'\JJ	.	16dd\JJ	16bb-'\JJ 16ddd	.
!	!LO:TX:t=P:mixedbeam:problem	!	!	!	!
.	8G'\L	.	(16ee-\LL	(16ccc\LL 16eee-	.
.	.	.	16dd\	16bb-\ 16ddd	.
.	8GG'/J	.	16cc\	16aa\ 16ccc	.
.	.	.	16dd\JJ)	16bb-\JJ) 16ddd	.
!!LO:LB:g=original
=18	=18	=18	=18	=18	=18
2r	8C^\L	.	(8dd\L 8ff	(8ddd\L 8fff	.
.	(16E-\L	.	8cc\J) 8ee-	8ccc\J) 8eee-	.
.	16G\JJ	.	.	.	.
!	!LO:TX:t=P:problem=mixedbeam	!	!	!	!
.	.	.	.	8qddd/ 8qfff	.
.	8c'\L)	.	8.cc^\L 8.ee-	8.ccc^\L 8.eee-	.
.	8C'/J	.	.	.	.
.	.	.	16b-\Jk 16dd	16bb-\Jk 16ddd	.
=19	=19	=19	=19	=19	=19
2r	8F'/L	.	8a'\ 8cc	8aa'\ 8ccc	.
.	8C'/	.	(16a\LL 16cc	(16aa\LL 16ccc	.
.	.	.	16b-\JJ 16dd	16bb-\JJ 16ddd	.
.	8AA'/	.	8cc\L) 8ee-	8ccc'\L) 8eee-	.
.	8FF'/J	.	8f'\J 8cc 8ff	8aa'\J 8fff	.
=20	=20	=20	=20	=20	=20
2r	8BB-^/L	.	(>4b-^/ 4dd	(4bb-^\ 4ddd	.
.	(16D/L	.	.	.	.
.	16F/JJ	.	.	.	.
.	8B-'\)	.	8b-|</)	8bb-|>\)	.
.	(16B-\LL	.	(16g/LL	(16gg/LL	.
.	16A\JJ	.	16a/JJ	16aa/JJ	.
=21	=21	=21	=21	=21	=21
4r	(8G^\L)	.	8b-/)	8gg/) 8bb-	.
.	16F\L	.	16b-'\LL	16gg|</LL 16bb-	.
.	16E-\JJ)	.	16b-'\JJ	16gg|</JJ 16bb-	.
(8D^/L	4r	.	(16cc\LL	(16aa/LL 16ccc	.
.	.	.	16b-\	16gg/ 16bb-	.
16C/L	.	.	16a\	16ff#X/ 16aa	.
16BB-/JJ)	.	.	16b-\JJ)	16gg/JJ) 16bb-	.
=22	=22	=22	=22	=22	=22
*	*	*	*	*^	*
8AA^/L	4.e-^\	.	(8dd\L	(8ddd/L	4gg\	>
(16C/L	.	.	8cc\J)	8ccc/J)	.	]
16E-/JJ	.	.	.	.	.	.
.	.	.	8qdd/	.	.	.
8A\L)	.	.	8.cc\L	8.ccc^/L	4ryy	.
(8G^\J	([8e-^\	.	.	.	.	.
.	.	.	16b-\Jk	16bb-/Jk	.	.
*	*	*	*	*v	*v	*
=23	=23	=23	=23	=23	=23
8F#X'\)	8e-\L]	.	8a|>\L	8aa'/L	.
(16D\LL	16d\L	.	8dd|>\J	8ccc'/J	.
16En\JJ	16c#X\JJ	.	.	.	.
16G^\LL	8cn'\L)	.	(8.a/L 8.cc	(8.aa^</L	.
16F#\	.	.	.	.	.
16E\	8d'\J	.	.	.	.
16F#\JJ)	.	.	32b-/LL 32dd	32bb-/LL	.
.	.	.	32a/JJJ) 32cc	32aa/JJJ)	.
=24	=24	=24	=24	=24	=24
8G'\L	4.B-\ 4.d	.	4.g/ 4.b-	4.gg/	.
8D'\J	.	.	.	.	.
8GG'/	.	.	.	.	.
8r	8r	.	8r	8r	.
!!LO:PB:g=original
=25||	=25||	=25||	=25||	=25||	=25||
*	*clefG2	*	*clefF4	*	*
!	!LO:TX:b:i:t=ben marcato	!LO:DY:color=blue:rj	!	!LO:TX:b:i:t=legierissimo	!LO:DY:color=blue:rj
!	!LO:ART:color=blue	!	!	!	!
8GGG/ 8GG	4b-^\	p	8r	8r	pp
8r	.	.	8G\L 8B- 8d	(32eee-^\LLL	.
.	.	.	.	32ddd\	.
.	.	.	.	32ccc#X\	.
.	.	.	.	32ddd\JJJ	.
!	!	!	!LO:N:head=invis	!	!
4r	8.b-\L	.	8G\ 8B- 8d	8bbb-^\L	.
!	!	!	!LO:N:head=invis	!	!
.	.	.	8G\J 8B- 8d	16bb-\Jk)	.
.	16b-\Jk	.	.	16r	.
=26	=26	=26	=26	=26	=26
*rep	*	*	*rep	*	*
8GGG/ 8GG	8.cc^\L	.	8r	8r	.
8r	.	.	8G\L 8B- 8d	(32eee-^\LLL	.
.	.	.	.	32ddd\	.
.	16b-\Jk	.	.	32ccc#X\	.
.	.	.	.	32ddd\JJJ	.
4r	8a/L	.	8G\ 8B- 8d	8bbb-^\L	.
.	8g/J	.	8G\J 8B- 8d	16bb-\Jk)	.
.	.	.	.	16r	.
*Xrep	*	*	*Xrep	*	*
=27	=27	=27	=27	=27	=27
8AAA/ 8AA	(2g^/	.	8r	8r	.
*	*	*	*tremolo	*	*
8r	.	.	8G\L 8c 8d	(32ddd^\LLL	.
.	.	.	.	32ccc\	.
.	.	.	.	32bbn\	.
.	.	.	.	32ccc\JJJ	.
!	!	!	!	!LO:TX:t=P:problem=mixedbeam	!
4r	.	.	8G\ 8c 8d	8aaa^\L	.
.	.	.	8G\J 8c 8d	16aa/Jk)	.
.	.	.	.	16r	.
=28	=28	=28	=28	=28	=28
8DD/	4f#X/)	.	8r	8r	.
8r	.	.	8A\L 8c 8d	(32eee-^\LLL	.
.	.	.	.	32ddd\	.
.	.	.	.	32ccc#X\	.
.	.	.	.	32ddd\JJJ	.
4r	4r	.	8A\ 8c 8d	8eee-^\L	.
.	.	.	8A\J 8c 8d	16ddd\Jk)	.
.	.	.	.	16r	.
=29	=29	=29	=29	=29	=29
8DD/ 8D	4cc^\	.	8r	8r	.
8r	.	.	8F#X\L 8A 8d	(32ddd^\LLL	.
.	.	.	.	32ccc\	.
.	.	.	.	32bbn\	.
.	.	.	.	32ccc\JJJ	.
.	.	.	.	8qccc/	.
4r	8.bn\L	.	8F#\ 8A 8d	8aaa^\L	.
.	.	.	8F#\J 8A 8d	16ddd\Jk)	.
*	*	*	*Xtremolo	*	*
.	16cc\Jk	.	.	16r	.
!!LO:LB:g=original
=30	=30	=30	=30	=30	=30
8DD/ 8D	8.ff#X^\L	.	8r	8r	.
8r	.	.	8A\ 8c 8d	(32eeen^\LLL	.
.	.	.	.	32ddd\	.
.	16een\Jk	.	.	32ccc#X\	.
.	.	.	.	32ddd\JJJ	.
8DD/ 8D	8.dd\L	.	8r	8eee^\L	.
8r	.	.	8F#X\ 8A 8d	16ddd\Jk)	.
.	16cc\Jk	.	.	16r	.
=31	=31	=31	=31	=31	=31
*	*2\right	*	*	*	*
8GG/	[2bn\	.	8r	8r	.
*	*	*	*tremolo	*	*
8r	.	.	8G\L 8Bn 8d	(32eeen^\LLL	.
.	.	.	.	32ddd\	.
.	.	.	.	32ccc#X\	.
.	.	.	.	32ddd\JJJ	.
4r	.	.	8G\ 8B 8d	8bbbn^\L	.
.	.	.	8G\J 8B 8d	16ddd\Jk)	.
.	.	.	.	16r	.
*	*	*	*Xtremolo	*	*
=32	=32	=32	=32	=32	=32
8GG/	2b\]	.	8r	(8ggg^\L	.
8r	.	.	8G\ 8Bn 8d	16bbn\Jk)	.
.	.	.	.	16r	.
8GG/	.	.	8r	(8ddd^\L	.
8r	.	.	8G\ 8B 8d	16gg\Jk)	.
*	*	*	*	*X8va	*
.	.	.	.	16r	.
=33	=33	=33	=33	=33	=33
8BBBny/ 8BBn	4dd^\	.	8r	8r	.
*	*	*	*tremolo	*	*
8r	.	.	8D\L 8G 8Bn 8d	(32aa^\LLL	.
.	.	.	.	32gg\	.
.	.	.	.	32ff#X\	.
.	.	.	.	32gg\JJJ	.
4r	8.cc#X\L	.	8D\ 8G 8B 8d	8aa^\L	.
.	.	.	8D\J 8G 8B 8d	16gg\Jk)	.
.	16dd\Jk	.	.	16r	.
=34	=34	=34	=34	=34	=34
8GGG/ 8GG	8ee-^\L	.	8r	8r	.
8r	8dd^\	.	8G\L 8Bn 8d	(32ccc^\LLL	.
.	.	.	.	32bbn\	.
.	.	.	.	32aan\	.
.	.	.	.	32bb\JJJ	.
4r	8a^\	.	8G\ 8B 8d	8ddd^\L	.
.	8f^\J	.	8G\J 8B 8d	16dd\Jk)	.
.	.	.	.	16r	.
*	*	*	*Xtremolo	*	*
!!LO:LB:g=original
=35	=35	=35	=35	=35	=35
*	*^	*	*	*	*
!	!	!	!LO:DY:rj	!	!LO:TX:t=P:problem=w taktach 36-37 przenośnik oktawowy-skasowany z powodu błędu walidacji-skonsultowane z E.Z.	!
8r	[2gg/	8g\	sff	8r	8r	.
!	!	!	!LO:DY:rj	!	!	!LO:DY:rj
16EEn/LL 16En	.	16g\LL 16b-X 16cc#X	ff	16G\LL 16B-X 16c#X	16g\LL 16b-X 16cc#X	ff
!	!	!	!	!LO:N:head=invis	!	!
16EE/JJ 16E	.	16g\JJ 16b- 16cc#	.	16G\JJ 16B- 16c#	16g\JJ 16b- 16cc#	.
!	!	!	!	!LO:N:head=invis	!	!
8EE/L 8E	.	8g\L 8b- 8cc#	.	8G^\L 8B- 8c#	8g^\L 8b- 8cc#	.
8DD/J 8D	.	8g\J 8b- 8dd	.	8G^\J 8B- 8d	8g^\J 8b- 8dd	.
=36	=36	=36	=36	=36	=36	=36
8CC#X/ 8C#X	8gg/]	8g\ 8b- 8een	.	8G\ 8B- 8c#X 8en	8g\ 8b- 8een	.
8r	8r	8ryy	.	8r	8r	.
4r	4r	4ryy	.	4r	4r	.
*	*clefF4	*	*	*clefG2	*	*
*	*v	*v	*	*	*	*
=37	=37	=37	=37	=37	=37
*8ba	*	*	*	*8va	*
!LO:TX:b:t=8	!	!LO:DY:rj	!	!LO:TX:t=P:problem=8va.color=blue	!
8DDD/ 8DD	8r	pp	8r	8r	pp
*X8ba	*	*	*	*	*
8r	8Bn'\L 8d	.	8g'/L 8cc	(16ddd\LL	.
.	.	.	.	16ggg\JJ)	.
4r	8G'\J 8B 8d	.	8g'/J 8bn	(16bbn\LL	.
.	.	.	.	16ddd\JJ)	.
.	(16G\LL	.	(16g/LL	(16gg/LL	.
.	16B\JJ	.	16b/JJ	16bb/JJ)	.
=38	=38	=38	=38	=38	=38
4r	8D\)	.	8d/)	(8dd/L	.
.	8r	.	8r	16bbn/Jk)	.
.	.	.	.	16r	.
(4DD/	([4D\ 4F#X	.	((4c^/ 4e-	8.dd/L 8.bb	.
.	.	.	.	16cc/Jk 16aa	.
=39	=39	=39	=39	=39	=39
8GG/)	8D\]) 8G	.	8Bn/)) 8d	[>2bn/ [>2gg	.
8r	8r	.	8r	.	.
8DD/	8D\	.	8B/ 8d	.	.
8r	8r	.	8r	.	.
=40	=40	=40	=40	=40	=40
!LO:SIC:v:s=4BBBn/	!	!	!	!	!
4BBB-/	4GG/	.	4G/ 4d 4g	4b/] 4gg]	.
8r	8r	.	8r	8r	.
=:|!	=:|!	=:|!	=:|!	=:|!	=:|!
*>B	*>B	*	*>B	*>B	*
!	!	!	!	!LO:TX:a:t=Coda.	!
!	!	!	!	!LO:SIC:v:s=16bb-/LL	!
8r	8r	.	16b-X\LL	16bbn/LL	ff
.	.	.	16cc\JJ	16ccc/JJ	.
!!LO:LB:g=original
=41	=41	=41	=41	=41	=41
!	!	!LO:DY:rj	!	!	!
8BBB-^/L 8BB-	8B-^\L	ff	8b-^\L 8dd	8bb-^\L 8ddd	.
8FF#X^/	8F#X^\	.	16b-\L 16dd	16bb-\L 16ddd	.
.	.	.	16b-\JJ 16dd	16bb-\JJ 16ddd	.
8GG^/	8G^\	.	(16ee-^\LL	(16ccc^\LL 16eee-	.
.	.	.	16dd\	16bb-\ 16ddd	.
8DD^/J	8D^\J	.	16cc\	16aa\ 16ccc	.
.	.	.	16dd\JJ)	16bb-\JJ) 16ddd	.
=42	=42	=42	=42	=42	=42
!	!	!	!LO:TX:a:t=Col 1m	!	!
(8DD/L 8D	8F\L 8A-X 8d	.	(8a-X^/Lyy 8bnyy 8ffyy	(8aa-X^/L 8bbn 8fff	.
16EE-/Jk) 16E-	16G\Jk 16c	.	16g/Jk)yy 16ccyy 16ee-yy	16gg/Jk) 16ccc 16eee-	.
16r	16r	.	16ryy	16r	.
(8CC/L 8C	(>[>8F\L 8c	.	(8f/Lyy 8a-yy 8ee-yy	(8ff/L 8aa- 8eee-	.
16DD/Jk) 16D	16F\Jk]) 16B-	.	16f/Jk)yy 16b-Xyy 16ddyy	16ff/Jk) 16bb-X 16ddd	.
16r	16r	.	16ryy	16r	.
=43	=43	=43	=43	=43	=43
8EE-/L 8E-	8G\L 8B-	.	8g^/yy 8b-yy 8ccyy	8gg^/ 8bb- 8ccc	.
8CC/ 8C	16G\L 16B-	.	(16cc\LLyy	(16ccc\LL	.
.	16G\JJ 16B-	.	16dd\JJyy	16ddd\JJ	.
8FF/ 8F	(8A^\L	.	8cc'\L)yy 8ee-yy	8ccc'\L) 8eee-	.
8FF/J	16G\L 16B-	.	8cc'\Jyy 8ffyy	8ccc'\J 8fff	.
.	16A\JJ 16c	.	.	.	.
=44	=44	=44	=44	=44	=44
8GGG/L 8GG	8B-\L) 8d	.	4b-\ 4dd	(4bb-^\ 4ddd	.
8FF/	8D'\ 8B- 8d	.	.	.	.
8BB-/J	8D'\J 8B- 8d	.	8b-\	8dd/) 8bb-	.
8r	8r	.	16g/LL	16gg/LL	.
.	.	.	16a/JJ	16aa/JJ	.
=45	=45	=45	=45	=45	=45
8GG^/L	8G^\L	.	8g/L 8b-	8gg/L 8bb-	.
!	!	!	!	!LO:N:head=invis	!
8DD^/	8D^\	.	16g/L 16b-	16gg/L 16bb-	.
!	!	!	!	!LO:N:head=invis	!
.	.	.	16g/JJ 16b-	16gg/JJ 16bb-	.
8EE-^/	8E-^\	.	(16cc/LL	(16aa/LL 16ccc	.
.	.	.	16b-/	16gg/ 16bb-	.
8BBB-^/J 8BB-	8B-^\J	.	16a/	16ff#X/ 16aa	.
.	.	.	16b-/JJ)	16gg/JJ) 16bb-	.
=46	=46	=46	=46	=46	=46
(8BBBn^>/L 8BBn	(8Bn^\L	.	(8f/L 8a-X 8dd	(8ff/L 8aa-X 8ddd	.
16CC/Jk) 16C	16c\Jk)	.	16e-/Jk) 16g 16cc	16ee-/Jk) 16gg 16ccc	.
16r	16r	.	16r	16r	.
.	.	.	.	8qddd/	.
(8FFF#X^>/L 8FF#X	(8F#X^\L	.	8e-/L 8an 8cc	8ee-/L 8aan 8ccc	.
16GGG/Jk) 16GG	16G\Jk)	.	16d/Jk 16g 16b-	16dd/Jk 16gg 16bb-	.
16r	16r	.	16r	16r	.
!!LO:PB:g=original
=47	=47	=47	=47	=47	=47
8C/L	8c\L	.	8g/ 8a	8gg/ 8aa	.
8AA/	8A\	.	(16a/LL	(16aa/LL	.
.	.	.	16b-/JJ	16bb-/JJ	.
(8E-^/	(8e-^\	.	8cc/L)	8ccc/L)	.
8D/J)	8d\J)	.	8f#X/J 8a 8dd	8ff#X/J 8ddd	.
=48	=48	=48	=48	=48	=48
8GG^/L	8G^\L	.	4.g/	4.gg/	.
8DD^/	8D^\	.	.	.	.
8GGG^/J 8GG	8G^\J	.	.	.	.
*	*	*	*	*X8va	*
8r	8r	.	8r	8r	.
==	==	==	==	==	==
*-	*-	*-	*-	*-	*-
!!!system-decoration: [(s1,s2)][(s3,s4)]
!!!RDF**kern: < = below
!!!RDF**kern: > = above
!!!RDF**kern: | = vertical stroke
!!!ENC: Anastazja Marusiak
!!!END: 2021-09-13
!!!ENC: Marta Chmielewska
!!!END: 2021-10-13
!!!YEC: Copyright 2022 Narodowy Instytut Fryderyka Chopina (https://polishscores.org)
!!!YEM: License CC-BY-4.0 (https://creativecommons.org/licenses/by/4.0)
